pix_core/e/new_document.svg

<!DOCTYPE svg PUBLIC "-//W3C//DTD SVG 1.1//EN" "http://www.w3.org/Graphics/SVG/1.1/DTD/svg11.dtd" [
	<!ENTITY ns_flows "http://ns.adobe.com/Flows/1.0/">
]><svg xmlns="http://www.w3.org/2000/svg" width="16" height="16" viewBox="-1 0 16 16" preserveAspectRatio="xMinYMid meet" overflow="visible" enable-background="new -1 0 16 16"><path d="M13.7 4.1c.2.4.3.8.3 1.1v9.5c0 .3-.1.6-.4.9-.2.2-.5.4-.9.4h-11.5c-.3 0-.6-.1-.9-.4-.2-.2-.3-.5-.3-.9v-13.5c0-.3.1-.6.4-.9s.5-.3.8-.3h7.5c.3 0 .7.1 1.1.3.4.2.8.4 1 .6l2.2 2.2c.4.3.6.6.7 1zm-.7 1.1c0-.1 0-.2 0-.2h-4v-4c-.1 0-.2 0-.2 0h-7.6c-.1 0-.2.1-.2.2v13.5c0 .2.1.3.2.3h11.5c.2 0 .2-.1.2-.3v-9.5zm-2.8-3.6c-.1 0-.1-.1-.2-.2v2.6h2.6c-.1-.1-.1-.1-.2-.2l-2.2-2.2z" fill="#1F4D87"/></svg>

<?xml version="1.0" encoding="utf-8"?>
<!-- Generator: Adobe Illustrator 15.1.0, SVG Export Plug-In  -->
<!DOCTYPE svg PUBLIC "-//W3C//DTD SVG 1.1//EN" "http://www.w3.org/Graphics/SVG/1.1/DTD/svg11.dtd" [
	<!ENTITY ns_flows "http://ns.adobe.com/Flows/1.0/">
]>
<svg version="1.1"
	 xmlns="http://www.w3.org/2000/svg" xmlns:xlink="http://www.w3.org/1999/xlink" xmlns:a="http://ns.adobe.com/AdobeSVGViewerExtensions/3.0/"
	 x="0px" y="0px" width="16px" height="16px" viewBox="-1 0 16 16" style="overflow:visible;enable-background:new -1 0 16 16;"
	 xml:space="preserve" preserveAspectRatio="xMinYMid meet">
<defs>
</defs>
<path style="fill:#1F4D87;" d="M13.7,4.1C13.9,4.5,14,4.9,14,5.2v9.5c0,0.3-0.1,0.6-0.4,0.9c-0.2,0.2-0.5,0.4-0.9,0.4H1.2
	c-0.3,0-0.6-0.1-0.9-0.4C0.1,15.4,0,15.1,0,14.7V1.2c0-0.3,0.1-0.6,0.4-0.9S0.9,0,1.2,0h7.5c0.3,0,0.7,0.1,1.1,0.3
	c0.4,0.2,0.8,0.4,1,0.6l2.2,2.2C13.4,3.4,13.6,3.7,13.7,4.1z M13,5.2c0-0.1,0-0.2,0-0.2H9V1C8.9,1,8.8,1,8.8,1H1.2
	C1.1,1,1,1.1,1,1.2v13.5C1,14.9,1.1,15,1.2,15h11.5c0.2,0,0.2-0.1,0.2-0.3V5.2z M10.2,1.6c-0.1,0-0.1-0.1-0.2-0.2V4h2.6
	c-0.1-0.1-0.1-0.1-0.2-0.2L10.2,1.6z"/>
</svg>
